!!!COM: Bach, Johann Sebastian
!!!CDT: 1685/3//-1750/7/28/
!!!OTL@@DE: Christus ist erstanden, hat ueberwunden
!!!OTL@EN:  Christ is risen, has conquered
!!!AGN: 4-Part Chorale
!!!SCT: BH 200
!!!SCT: BWV 284
**harm	**root	**kern	**kern	**kern	**kern
*	*Iorgan	*Iorgan	*Iorgan	*Iorgan	*Iorgan
!	!	!bass	!tenor	!alto	!soprno
*	*	*clefF4	*clefF4	*clefG2	*clefG2
*M4/4	*M4/4	*M4/4	*M4/4	*M4/4	*M4/4
*met(c)	*met(c)	*met(c)	*met(c)	*met(c)	*met(c)
*MM60	*MM60	*MM60	*MM60	*MM60	*MM60
*k[f#c#g#d#]	*k[f#c#g#d#]	*k[f#c#g#d#]	*k[f#c#g#d#]	*k[f#c#g#d#]	*k[f#c#g#d#]
*E:	*E:	*E:	*E:	*E:	*E:
=1-	=1-	=1-	=1-	=1-	=1-
I	4CC	4e	4g#	4b	4ee
Vb	4GG	4d#	4f#	[4b	4b
vii/V	4FF#	4c#	4e	8b]	4cc#
.	.	.	.	8a#	.
V	4GG	8B	4f#	4b	4dd#
.	.	8A	.	.	.
=2	=2	=2	=2	=2	=2
Ib	4CC	4G#	8e	4.b	2ee
.	.	.	8d	.	.
IV	4FF	4A	4c#	.	.
.	.	.	.	[8a	.
I;	4CC;	4E;	4B;	8a]	4ee;
.	.	.	.	8g#;	.
V/IV	4CC	8e	4e	[4g#	4b
.	.	8d	.	.	.
=3	=3	=3	=3	=3	=3
vi	8AA	4c#	4e	8g#]	4ee
viiob/V	8FF#	.	.	8a#	.
v	4GG	4B	4f#	4b	4dd
iio7b/v	4AA	4E	4g	4b	2cc#
V/V	4DD	4F#	8f#	4a#	.
.	.	.	8e	.	.
=4	=4	=4	=4	=4	=4
v;	2GG;	2BB;	2d;	2f#;	2b;
v	4GG	4B	4d	8f#	4b
.	.	.	.	4g	.
viioD7/v	8FF#	4A#	4e	.	4cc#
V7b/v	8DD	.	.	[8f#	.
=5	=5	=5	=5	=5	=5
v	4GG	4B	8d	8f#]	4dd
.	.	.	8B	8dd	.
iv/v	4CC	4E	4g	8cc#	4ee
.	.	.	.	8b	.
Vc	4GG	4F#	[4f#	8a#	4dd
.	.	.	.	4b	.
V/v	4DD	4FF#	8.f#]	.	4cc#
.	.	.	.	8a#	.
.	.	.	16e	.	.
!!linebreak: 3
=6	=6	=6	=6	=6	=6
v;	2GG;	2BB;	2d;	2f#;	2b;
I	4CC	8E	[4e	8g#	4b
.	.	8F#	.	8a	.
Ib	4CC	8G#	8e]	4b	4ee
.	.	8A	8f#	.	.
=7	=7	=7	=7	=7	=7
Ic	4CC	4B	8g#	4b	4ee
.	.	.	16f#	.	.
.	.	.	16e	.	.
V	4GG	4BB	8f#	4b	4dd#
.	.	.	[8a	.	.
I;	2CC;	2E;	8a]	2b;	2ee;
.	.	.	16g#	.	.
.	.	.	16f#	.	.
.	.	.	4g#;	.	.
=8	=8	=8	=8	=8	=8
IV	4FF	8A	4a	4cc#	4ee
.	.	8B	.	.	.
IV	4FF	8A	4a	8cc#	4ee
.	.	8G#	.	8b	.
ii	4DD	8F#	8a	8a	4ff#
.	.	8G#	8g#	8b	.
iib	4DD	8A	8f#	[4cc#	4ff#
.	.	8B	8g#	.	.
=9	=9	=9	=9	=9	=9
IVb	4FF	8c#	[4a	4cc#]	4ee
.	.	8A	.	.	.
ii7	8DD	8B	8a]	8dd	4dd
V7/IV	8CC	8E	8g#	8b	.
IV;	2FF;	2A;	2e;	2a;	2cc#;
=10	=10	=10	=10	=10	=10
V/IV	4CC	8e	4e	4g#	4b
.	.	8d	.	.	.
vi	8AA	4c#	4e	8g#	4cc#
viiob/v	8FF#	.	.	8a#	.
v	4GG	8B	4f#	[4b	4dd
.	.	8D	.	.	.
iio7b/v	8AA	8E	8g	8b]	4cc#
V/v	8DD	8F#	16f#	8a#	.
.	.	.	16e	.	.
!!linebreak: 3
=11	=11	=11	=11	=11	=11
-III;	2EE-;	2G;	2d;	2b;	2b;
v	4GG	4B	8d	8f#	4dd
.	.	.	8f#	[8dd	.
V/-VII	4FF	4A	4a	8dd]	4ee
.	.	.	.	8cc#	.
=12	=12	=12	=12	=12	=12
-VII	4BB-	8d	4a	2dd	4ff#
.	.	8c#	.	.	.
IVb/-VII	8EE-	8B	8g	.	8gg
Ic/-VII	8BB-	8A	8a	.	8ff#
ii7b/-VII	8CC	8G	8b	4dd	2ee
ii7/-VII	8CC	8E	8g	.	.
V/-VII	4FF	4A	8e	4cc#	.
.	.	.	8a	.	.
=13	=13	=13	=13	=13	=13
I/-VII;	2BB-;	2D;	2a;	2dd;	2ff#;
I/-VII	4BB-	4dy	4a	4.dd	4ff#
V/-VII	4FF	4A	4a	.	4ee
.	.	.	.	8cc#	.
=14	=14	=14	=14	=14	=14
I/-VII	4BB-	8d	4a	4dd	4ff#
.	.	8c#	.	.	.
iio7d/v	8AA	8B	8g	4cc#	4ee
V7b/v	8DD	8A#	8f#	.	.
v	4GG	8B	4f#	4b	4dd
.	.	8c#	.	.	.
V7d/IV	4CC	8d	4e	4g#	4b
.	.	8e	.	.	.
=15	=15	=15	=15	=15	=15
IV	4FF	4A	4e	8a	4cc#
.	.	.	.	8g#	.
V7	4GG	4B	4B	8f#	4dd#
.	.	.	.	8a	.
I;	2CC;	2E;	2B;	2g#;	2ee;
==	==	==	==	==	==
*-	*-	*-	*-	*-	*-
!!!YOR1: Ludwig Erk, Peters Editions of 1850, 1865; rev. in light of Friedrich
!!!YOR2: Smend, Peters Edition of 1932 & Albert Riemenschneider, 1941.
!!!RDT: 1987 September
!!!YER: 1995 March 1
!!chor2scor: -l 3 -s 0.6 -o %b.pmx
!!!YEC: Copyright 1994, David Huron
!!!YEC: Changes/Additions 2001 by Craig Stuart Sapp
!!!YEN: United States of America
!!!SMA: J.S. Bach Chorale Harmonizations, edited by Ludwig Erk, C.F. Peters
!!!PDT: 1850, 1865
